T: Kiley's
M: 4/4
L: 1/8
K: Dmaj
Aceg agfe | dcBA GB E2 | B2 GB zG B2 |cBAc BA GB |
Aceg agfe | dcBA GBE2 |B2GBz E GB | zAGB A2E2:|
(4A/B/c/d/ e2 ce zc e2 | B2 GBz G B2| e2 ce zc e2 | f2dfz d f2|
| Aceg abae|fdGA A3:||
